X:107
T:T067- The Wind that shakes the barley
S:Power's collection of Country Dances, c 1812
Q:1/4=80
L:1/4
M:C
K:D
F/A/A/B/ A/F/E/D/|F/B/B/A/ Bd|F/A/A/B/ A/F/E/D/|g/f/e/d/Bd::\
ff/d/gg/e/|ff/d/ e/c/B/A/|ff/d/ g/b/g/e/|g/f/e/d/Bd|\
ff/d/ gg/e/|f/a/f/d/ e/c/B/A/|f/a/f/d/ g/b/g/e/|g/f/e/d/Bd:|]

